X: 636
T: Hartford House
C:Mike Compton
B: jims roots
M:2/4
L:1/16
Q: 1/4=100
K:D
V:1 
=cBAG E=C[CE][^C^E] | [DF]DDG FD=F^F | DF[FA][Fd] y"C"[F2^B][F2B] |
"D"A=cd=f ^fdcB |[1 "A"AFdd "D"dD=C^C :|[2 "A"AFd2 "D"dde=f ||
"D"fdAf gf[=c2f] | a^g=g=f ^fd=cd | [e_a][f=a][fa][fa] afad' |
aaa=f fff^f | fdAf gf[=c2f] | a^g=g=f ^fdfa |
"C"[e2=c'][d2b] [ca][ca]AA | [1 "A"[A=f][Af][Ge][Ge] "D"[F2d]ef :|[2 [M:3/4]"A"[Af][A=f][^Ge][Ge] "D"ddAd AD=GD |
V:=CE 
V:^C^E 
 |:"D"[D2F]DG FD=F^F DF[FA][Fd] y"C"[F2=c][F2=c] | "D"A=cd=f ^fdAB |
V:M:2/4 
V:F2d 
[Fd][Fd] [F2d]CF][DG] |]
% abcbook-tune_id 6298c25d408f0f4e4935797e


% abcbook-boost 0
% abcbook-tablature 
% abcbook-transpose 
% abcbook-lastupdated 1654178398631
% abcbook-soundfonts 
% abcbook-repeats 1


